; generated by Slic3r 1.2.9 on 2018-05-29 at 19:42:52

; external perimeters extrusion width = 0.40mm
; perimeters extrusion width = 0.67mm
; infill extrusion width = 0.67mm
; solid infill extrusion width = 0.67mm
; top infill extrusion width = 0.67mm
; support material extrusion width = 0.40mm

M127
M109 S215 ; set bed temperature
M104 S215 T0 ; set temperature
G28 ; home all axes
G1 Z5 F5000 ; lift nozzle

M73 P0
G1 Z0.350 F7800.000
G1 E-2.00000 F2400.00000
M103 ; extruder off
G1 Z2.350 F7800.000
G1 X55.949 Y55.352 F7800.000
G1 Z0.350 F7800.000
M101 ; extruder on
G1 E0.00000 F2400.00000
G1 X56.757 Y54.677 E0.09572 F1800.000
G1 X70.893 Y44.421 E1.68378
G1 X86.049 Y34.751 E3.31858
G1 X88.167 Y33.871 E3.52712
G1 X89.670 Y33.711 E3.66450
G1 X108.792 Y33.878 E5.40330
M101 ; extruder on
G1 X109.987 Y33.889 E5.51200 F1800.000
G1 X112.242 Y34.306 E5.72054
G1 X113.353 Y34.842 E5.83270
G1 X128.998 Y44.288 E7.49445
G1 X129.775 Y44.818 E7.58004
G1 X143.530 Y54.812 E9.12599
G1 X144.301 Y55.468 E9.21803
G1 X144.985 Y56.247 E9.31238
G1 X145.250 Y56.602 E9.35256
G1 X155.119 Y70.186 E10.87939
G1 X155.622 Y70.935 E10.96146
G1 X165.125 Y86.200 E12.59644
G1 X165.610 Y87.139 E12.69256
G1 X165.787 Y87.562 E12.73419
G1 X166.302 Y90.123 E12.97180
G1 X166.302 Y110.281 E14.80477
G1 X165.600 Y113.250 E15.08214
G1 X165.116 Y114.126 E15.17318
G1 X155.170 Y129.458 E16.83487
G1 X145.622 Y142.594 E18.31160
G1 X144.755 Y143.731 E18.44159
G1 X143.381 Y145.073 E18.61626
G1 X129.404 Y155.227 E20.18714
G1 X129.053 Y155.466 E20.22574
G1 X113.602 Y165.243 E21.88829
G1 X111.481 Y166.115 E22.09684
G1 X110.060 Y166.270 E22.22686
G1 X89.679 Y166.270 E24.08009
G1 X87.420 Y165.873 E24.28864
G1 X86.107 Y165.224 E24.42178
G1 X70.718 Y155.373 E26.08325
G1 X56.541 Y145.084 E27.67606
G1 X56.249 Y144.858 E27.70970
G1 X54.944 Y143.513 E27.88005
G1 X44.655 Y129.334 E29.47306
G1 X34.760 Y114.027 E31.13045
G1 X33.867 Y111.914 E31.33900
G1 X33.698 Y110.430 E31.47479
G1 X33.698 Y89.942 E33.33776
G1 X34.400 Y86.974 E33.61513
G1 X34.844 Y86.162 E33.69923
G1 X44.593 Y70.744 E35.35790
G1 X44.832 Y70.391 E35.39671
G1 X54.994 Y56.405 E36.96872
G1 X55.909 Y55.396 E37.09252
G1 X60.351 Y60.302 F7800.000
M101 ; extruder on
G1 X45.704 Y89.527 E38.63795 F1800.000
G1 X46.098 Y89.527 E38.65657
G1 X61.007 Y59.781 E40.22960
G1 X61.626 Y59.331 E40.26580
G1 X46.492 Y89.527 E41.86262
G1 X46.886 Y89.527 E41.88124
G1 X62.246 Y58.880 E43.50187
G1 X62.865 Y58.430 E43.53807
G1 X47.280 Y89.527 E45.18250
G1 X47.674 Y89.527 E45.20113
G1 X63.485 Y57.980 E46.86936
G1 X64.104 Y57.530 E46.90556
G1 X48.068 Y89.527 E48.59760
G1 X48.271 Y89.907 F7800.000
M101 ; extruder on
G1 X64.724 Y57.080 E50.33352 F1800.000
G1 X65.344 Y56.630 E50.36972
G1 X48.271 Y90.693 E52.17100
G1 X48.004 Y90.553 F7800.000
M101 ; extruder on
G1 X40.323 Y105.877 E52.98133 F1800.000
G1 X40.323 Y105.118 F7800.000
M101 ; extruder on
G1 X48.004 Y89.794 E53.79166 F1800.000
G1 X47.669 Y89.703 E53.80805
G1 X40.323 Y104.359 E54.58311
G1 X40.323 Y103.600 F7800.000
M101 ; extruder on
G1 X47.289 Y89.703 E55.31804 F1800.000
G1 X46.909 Y89.703 E55.33602
G1 X40.323 Y102.841 E56.03082
G1 X40.323 Y102.083 F7800.000
M101 ; extruder on
G1 X46.528 Y89.703 E56.68549 F1800.000
G1 X46.148 Y89.703 E56.70347
G1 X40.323 Y101.324 E57.31801
G1 X40.323 Y100.565 F7800.000
M101 ; extruder on
G1 X45.768 Y89.703 E57.89243 F1800.000
G1 X45.387 Y89.703 E57.91041
G1 X40.323 Y99.806 E58.44470
G1 X40.323 Y99.047 F7800.000
M101 ; extruder on
G1 X45.007 Y89.703 E58.93886 F1800.000
G1 X44.627 Y89.703 E58.95684
G1 X40.323 Y98.288 E59.41087
G1 X40.323 Y97.530 F7800.000
M101 ; extruder on
G1 X44.246 Y89.703 E59.82477 F1800.000
G1 X43.866 Y89.703 E59.84275
G1 X40.323 Y96.771 E60.21653
G1 X40.323 Y96.012 F7800.000
M101 ; extruder on
G1 X43.486 Y89.703 E60.55017 F1800.000
G1 X43.105 Y89.703 E60.56815
G1 X40.323 Y95.253 E60.86167
G1 X40.323 Y94.494 F7800.000
M101 ; extruder on
G1 X42.725 Y89.703 E61.11506 F1800.000
G1 X42.345 Y89.703 E61.13304
G1 X40.323 Y93.735 E61.34630
G1 X40.323 Y92.977 F7800.000
M101 ; extruder on
G1 X41.964 Y89.703 E61.51944 F1800.000
G1 X41.584 Y89.703 E61.53742
G1 X40.323 Y92.218 E61.67043
G1 X40.323 Y91.459 F7800.000
M101 ; extruder on
G1 X41.204 Y89.703 E61.76330 F1800.000
G1 X40.823 Y89.703 E61.78128
G1 X40.323 Y90.700 E61.83405
G1 X40.323 Y89.942 F7800.000
M101 ; extruder on
G1 X40.443 Y89.703 E61.84672 F1800.000
G1 X45.310 Y89.527 F7800.000
M101 ; extruder on
G1 X59.081 Y62.051 E63.29968 F1800.000
G1 X57.811 Y63.799 F7800.000
M101 ; extruder on
G1 X45.624 Y88.114 E64.58545 F1800.000
G1 X46.350 Y85.879 F7800.000
M101 ; extruder on
G1 X56.541 Y65.548 E65.66061 F1800.000
G1 X55.270 Y67.296 F7800.000
M101 ; extruder on
G1 X47.076 Y83.645 E66.52514 F1800.000
G1 X47.802 Y81.410 F7800.000
M101 ; extruder on
G1 X54.000 Y69.045 E67.17904 F1800.000
G1 X52.730 Y70.793 F7800.000
M101 ; extruder on
G1 X48.528 Y79.176 E67.62233 F1800.000
G1 X49.254 Y76.942 F7800.000
M101 ; extruder on
G1 X51.460 Y72.542 E67.85500 F1800.000
G1 X50.189 Y74.290 F7800.000
M101 ; extruder on
G1 X49.980 Y74.707 E67.87705 F1800.000
G1 X55.185 Y78.469 F7800.000
M101 ; extruder on
G1 X48.271 Y92.264 E68.60654 F1800.000
G1 X48.271 Y91.478 E68.64370
G1 X65.963 Y56.180 E70.51035
G1 X66.583 Y55.729 E70.54655
G1 X56.238 Y76.370 E71.63802
G1 X57.508 Y74.621 F7800.000
M101 ; extruder on
G1 X67.202 Y55.279 E72.66083 F1800.000
G1 X67.822 Y54.829 E72.69704
G1 X58.778 Y72.873 E73.65119
G1 X60.049 Y71.124 F7800.000
M101 ; extruder on
G1 X68.441 Y54.379 E74.53668 F1800.000
G1 X69.061 Y53.929 E74.57289
G1 X61.319 Y69.376 E75.38972
G1 X62.589 Y67.627 F7800.000
M101 ; extruder on
G1 X69.680 Y53.479 E76.13790 F1800.000
G1 X70.300 Y53.029 E76.17410
G1 X63.859 Y65.879 E76.85362
G1 X64.900 Y64.589 F7800.000
M101 ; extruder on
G1 X70.919 Y52.579 E77.48875 F1800.000
G1 X71.539 Y52.128 E77.52495
G1 X65.519 Y64.139 E78.16007
G1 X66.139 Y63.689 E78.19628
G1 X72.158 Y51.678 E78.83140
G1 X72.778 Y51.228 E78.86760
G1 X66.758 Y63.239 E79.50273
G1 X67.378 Y62.788 E79.53893
G1 X73.397 Y50.778 E80.17406
G1 X74.017 Y50.328 E80.21026
G1 X67.997 Y62.338 E80.84538
G1 X68.617 Y61.888 E80.88159
G1 X74.629 Y49.892 E81.51594
G1 X75.100 Y49.740 E81.53933
G1 X69.236 Y61.438 E82.15797
G1 X69.856 Y60.988 E82.19417
G1 X75.570 Y49.587 E82.79709
G1 X76.041 Y49.434 E82.82048
G1 X70.475 Y60.538 E83.40768
G1 X71.095 Y60.088 E83.44388
G1 X76.511 Y49.281 E84.01536
G1 X76.982 Y49.128 E84.03875
G1 X71.714 Y59.638 E84.59451
G1 X72.334 Y59.187 E84.63072
G1 X77.452 Y48.975 E85.17076
G1 X77.923 Y48.822 E85.19415
G1 X72.953 Y58.737 E85.71847
G1 X73.573 Y58.287 E85.75468
G1 X78.393 Y48.669 E86.26328
G1 X78.864 Y48.516 E86.28667
G1 X74.192 Y57.837 E86.77956
G1 X74.812 Y57.387 E86.81576
G1 X79.335 Y48.364 E87.29293
G1 X79.805 Y48.211 E87.31632
G1 X75.432 Y56.937 E87.77777
G1 X76.051 Y56.487 E87.81398
G1 X80.276 Y48.058 E88.25971
G1 X80.746 Y47.905 E88.28310
G1 X76.671 Y56.037 E88.71311
G1 X77.290 Y55.586 E88.74931
G1 X81.217 Y47.752 E89.16361
G1 X81.687 Y47.599 E89.18700
G1 X77.765 Y55.426 E89.60087
G1 X78.235 Y55.273 E89.62426
G1 X82.158 Y47.446 E90.03813
G1 X82.628 Y47.293 E90.06152
G1 X78.706 Y55.120 E90.47540
G1 X79.176 Y54.967 E90.49879
G1 X83.099 Y47.140 E90.91266
G1 X83.569 Y46.988 E90.93605
G1 X79.647 Y54.814 E91.34992
G1 X80.117 Y54.661 E91.37331
G1 X84.040 Y46.835 E91.78719
G1 X84.511 Y46.682 E91.81058
G1 X80.588 Y54.508 E92.22445
G1 X81.058 Y54.355 E92.24784
G1 X84.981 Y46.529 E92.66171
G1 X85.452 Y46.376 E92.68510
G1 X81.529 Y54.203 E93.09898
G1 X82.000 Y54.050 E93.12237
G1 X85.922 Y46.223 E93.53624
G1 X86.393 Y46.070 E93.55963
G1 X82.470 Y53.897 E93.97350
G1 X82.941 Y53.744 E93.99689
G1 X86.863 Y45.917 E94.41077
G1 X87.334 Y45.765 E94.43416
G1 X83.411 Y53.591 E94.84803
G1 X83.882 Y53.438 E94.87142
G1 X87.804 Y45.612 E95.28529
G1 X88.275 Y45.459 E95.30868
G1 X84.352 Y53.285 E95.72256
G1 X84.823 Y53.132 E95.74595
G1 X88.745 Y45.306 E96.15982
G1 X89.179 Y45.227 E96.18065
G1 X85.293 Y52.979 E96.59062
G1 X85.764 Y52.827 E96.61401
G1 X89.172 Y46.027 E96.97360
G1 X89.436 Y46.274 F7800.000
M101 ; extruder on
G1 X92.401 Y40.361 E97.28633 F1800.000
G1 X92.799 Y40.364 E97.30517
G1 X89.429 Y47.087 E97.66069
G1 X89.165 Y46.827 F7800.000
M101 ; extruder on
G1 X86.234 Y52.674 E97.96988 F1800.000
G1 X86.705 Y52.521 E97.99327
G1 X89.158 Y47.627 E98.25207
G1 X89.222 Y48.284 E98.28329
G1 X87.176 Y52.368 E98.49926
G1 X87.646 Y52.215 E98.52265
G1 X89.615 Y48.287 E98.73034
G1 X90.007 Y48.291 E98.74889
G1 X88.117 Y52.062 E98.94832
G1 X88.587 Y51.909 E98.97171
G1 X90.399 Y48.294 E99.16288
G1 X90.791 Y48.298 E99.18142
G1 X89.058 Y51.756 E99.36432
G1 X89.528 Y51.604 E99.38771
G1 X91.183 Y48.301 E99.56235
G1 X91.576 Y48.305 E99.58089
G1 X89.999 Y51.451 E99.74726
G1 X90.469 Y51.298 E99.77065
G1 X91.968 Y48.308 E99.92875
G1 X92.360 Y48.311 E99.94730
G1 X90.940 Y51.145 E100.09714
G1 X91.410 Y50.992 E100.12053
G1 X92.752 Y48.315 E100.26210
G1 X93.145 Y48.318 E100.28064
G1 X91.881 Y50.839 E100.41395
G1 X92.352 Y50.686 E100.43734
G1 X93.537 Y48.322 E100.56238
G1 X93.573 Y49.035 E100.59614
G1 X92.822 Y50.533 E100.67539
G1 X93.293 Y50.380 E100.69878
G1 X93.728 Y49.511 E100.74473
G1 X93.883 Y49.988 E100.76843
G1 X93.763 Y50.228 E100.78108
G1 X89.422 Y47.900 F7800.000
M101 ; extruder on
G1 X93.197 Y40.367 E101.17939 F1800.000
G1 X93.596 Y40.371 E101.19822
G1 X89.713 Y48.119 E101.60793
G1 X90.111 Y48.122 E101.62676
G1 X93.994 Y40.374 E102.03647
G1 X94.392 Y40.378 E102.05530
G1 X90.509 Y48.126 E102.46500
G1 X90.908 Y48.129 E102.48384
G1 X94.791 Y40.381 E102.89354
G1 X95.189 Y40.385 E102.91237
G1 X91.306 Y48.132 E103.32208
G1 X91.704 Y48.136 E103.34091
G1 X95.588 Y40.388 E103.75062
G1 X95.986 Y40.392 E103.76945
G1 X92.103 Y48.139 E104.17915
G1 X92.501 Y48.143 E104.19799
G1 X96.384 Y40.395 E104.60769
G1 X96.783 Y40.399 E104.62652
G1 X92.899 Y48.146 E105.03623
G1 X93.298 Y48.150 E105.05506
G1 X97.181 Y40.402 E105.46477
G1 X97.579 Y40.406 E105.48360
G1 X93.696 Y48.153 E105.89330
G1 X94.095 Y48.157 E105.91214
G1 X97.978 Y40.409 E106.32184
G1 X98.376 Y40.413 E106.34067
G1 X94.493 Y48.160 E106.75038
G1 X94.891 Y48.164 E106.76921
G1 X98.774 Y40.416 E107.17891
G1 X99.173 Y40.420 E107.19775
G1 X95.290 Y48.167 E107.60745
G1 X95.688 Y48.171 E107.62629
G1 X99.571 Y40.423 E108.03599
G1 X99.970 Y40.427 E108.05482
G1 X96.086 Y48.174 E108.46453
G1 X96.485 Y48.178 E108.48336
G1 X100.368 Y40.430 E108.89306
G1 X100.766 Y40.434 E108.91190
G1 X96.883 Y48.181 E109.32160
G1 X97.282 Y48.185 E109.34044
G1 X101.165 Y40.437 E109.75014
G1 X101.563 Y40.440 E109.76897
G1 X97.680 Y48.188 E110.17868
G1 X98.078 Y48.192 E110.19751
G1 X101.961 Y40.444 E110.60721
G1 X102.360 Y40.447 E110.62605
G1 X98.477 Y48.195 E111.03575
G1 X98.875 Y48.198 E111.05459
G1 X102.758 Y40.451 E111.46429
G1 X103.157 Y40.454 E111.48312
G1 X99.273 Y48.202 E111.89283
G1 X99.672 Y48.205 E111.91166
G1 X103.555 Y40.458 E112.32136
G1 X103.953 Y40.461 E112.34020
G1 X100.070 Y48.209 E112.74990
G1 X100.469 Y48.212 E112.76873
G1 X104.352 Y40.465 E113.17844
G1 X104.750 Y40.468 E113.19727
G1 X100.867 Y48.216 E113.60698
G1 X101.265 Y48.219 E113.62581
G1 X105.148 Y40.472 E114.03551
G1 X105.547 Y40.475 E114.05435
G1 X101.664 Y48.223 E114.46405
G1 X102.062 Y48.226 E114.48288
G1 X105.945 Y40.479 E114.89259
G1 X106.344 Y40.482 E114.91142
G1 X102.460 Y48.230 E115.32112
G1 X102.859 Y48.233 E115.33996
G1 X106.742 Y40.486 E115.74966
G1 X107.140 Y40.489 E115.76850
G1 X103.257 Y48.237 E116.17820
G1 X103.656 Y48.240 E116.19703
G1 X107.539 Y40.493 E116.60674
G1 X107.937 Y40.496 E116.62557
G1 X104.054 Y48.244 E117.03527
G1 X104.452 Y48.247 E117.05411
G1 X108.335 Y40.500 E117.46381
G1 X108.734 Y40.503 E117.48265
G1 X104.851 Y48.251 E117.89235
G1 X105.249 Y48.254 E117.91118
G1 X109.132 Y40.506 E118.32089
G1 X109.531 Y40.510 E118.33972
G1 X105.647 Y48.258 E118.74942
G1 X106.046 Y48.261 E118.76825
G1 X109.929 Y40.513 E119.17795
G1 X110.219 Y40.732 E119.19514
G1 X106.444 Y48.265 E119.59347
G1 X106.843 Y48.268 E119.61230
G1 X110.212 Y41.545 E119.96784
G1 X110.205 Y42.357 F7800.000
M101 ; extruder on
G1 X107.241 Y48.271 E120.28059 F1800.000
G1 X107.639 Y48.275 E120.29942
G1 X110.198 Y43.170 E120.56939
G1 X110.191 Y43.982 F7800.000
M101 ; extruder on
G1 X108.038 Y48.278 E120.79657 F1800.000
G1 X108.436 Y48.282 E120.81540
G1 X110.184 Y44.795 E120.99979
G1 X110.177 Y45.608 F7800.000
M101 ; extruder on
G1 X108.834 Y48.285 E121.14140 F1800.000
G1 X109.233 Y48.289 E121.16023
G1 X110.169 Y46.420 E121.25905
G1 X110.434 Y46.643 F7800.000
M101 ; extruder on
G1 X111.139 Y45.237 E121.33340 F1800.000
G1 X110.798 Y45.127 E121.35033
G1 X110.441 Y45.839 E121.38799
G1 X110.162 Y47.233 F7800.000
M101 ; extruder on
G1 X109.631 Y48.292 E121.44402 F1800.000
G1 X110.155 Y48.045 E121.47141
G1 X110.030 Y48.296 E121.48465
G1 X109.917 Y48.464 F7800.000
M101 ; extruder on
G1 X108.629 Y51.036 E121.62062 F1800.000
G1 X108.288 Y50.925 E121.63756
G1 X109.523 Y48.461 E121.76786
G1 X109.129 Y48.457 E121.78650
G1 X107.947 Y50.814 E121.91113
G1 X107.607 Y50.704 E121.92807
G1 X108.734 Y48.454 E122.04702
G1 X108.340 Y48.451 E122.06567
G1 X107.266 Y50.593 E122.17895
G1 X106.925 Y50.482 E122.19589
G1 X107.945 Y48.447 E122.30350
G1 X107.551 Y48.444 E122.32215
G1 X106.585 Y50.371 E122.42409
G1 X106.924 Y48.904 F7800.000
M101 ; extruder on
G1 X107.156 Y48.440 E122.44863 F1800.000
G1 X110.427 Y47.448 F7800.000
M101 ; extruder on
G1 X111.479 Y45.348 E122.55967 F1800.000
G1 X111.820 Y45.459 E122.57660
G1 X108.969 Y51.146 E122.87737
G1 X109.310 Y51.257 E122.89430
G1 X112.161 Y45.569 E123.19507
G1 X112.501 Y45.680 E123.21200
G1 X109.651 Y51.368 E123.51276
G1 X109.991 Y51.478 E123.52970
G1 X112.842 Y45.791 E123.83046
G1 X113.183 Y45.901 E123.84740
G1 X110.332 Y51.589 E124.14816
G1 X110.673 Y51.700 E124.16510
G1 X113.523 Y46.012 E124.46586
G1 X113.864 Y46.123 E124.48280
G1 X111.013 Y51.810 E124.78356
G1 X111.354 Y51.921 E124.80049
G1 X114.205 Y46.234 E125.10126
G1 X114.545 Y46.344 E125.11819
G1 X111.695 Y52.032 E125.41896
G1 X112.036 Y52.142 E125.43589
G1 X114.886 Y46.455 E125.73666
G1 X115.227 Y46.566 E125.75359
G1 X112.376 Y52.253 E126.05435
G1 X112.717 Y52.364 E126.07129
G1 X115.568 Y46.676 E126.37205
G1 X115.908 Y46.787 E126.38899
G1 X113.058 Y52.475 E126.68975
G1 X113.398 Y52.585 E126.70669
G1 X116.249 Y46.898 E127.00745
G1 X116.590 Y47.008 E127.02439
G1 X113.739 Y52.696 E127.32515
G1 X114.080 Y52.807 E127.34208
G1 X116.930 Y47.119 E127.64285
G1 X117.271 Y47.230 E127.65978
G1 X114.420 Y52.917 E127.96055
G1 X114.761 Y53.028 E127.97748
G1 X117.612 Y47.340 E128.27825
G1 X117.952 Y47.451 E128.29518
G1 X115.102 Y53.139 E128.59594
G1 X115.442 Y53.249 E128.61288
G1 X118.293 Y47.562 E128.91364
G1 X118.634 Y47.673 E128.93058
G1 X115.783 Y53.360 E129.23134
G1 X116.124 Y53.471 E129.24828
G1 X118.974 Y47.783 E129.54904
G1 X119.315 Y47.894 E129.56598
G1 X116.464 Y53.581 E129.86674
G1 X116.805 Y53.692 E129.88367
G1 X119.656 Y48.005 E130.18444
G1 X119.996 Y48.115 E130.20137
G1 X117.146 Y53.803 E130.50214
G1 X117.486 Y53.914 E130.51907
G1 X120.337 Y48.226 E130.81984
G1 X120.678 Y48.337 E130.83677
G1 X117.827 Y54.024 E131.13753
G1 X118.168 Y54.135 E131.15447
G1 X121.018 Y48.447 E131.45523
G1 X121.359 Y48.558 E131.47217
G1 X118.509 Y54.246 E131.77293
G1 X118.849 Y54.356 E131.78987
G1 X121.700 Y48.669 E132.09063
G1 X122.041 Y48.779 E132.10757
G1 X119.190 Y54.467 E132.40833
G1 X119.531 Y54.578 E132.42526
G1 X122.381 Y48.890 E132.72603
G1 X122.722 Y49.001 E132.74296
G1 X119.871 Y54.688 E133.04373
G1 X120.212 Y54.799 E133.06066
G1 X123.063 Y49.112 E133.36143
G1 X123.403 Y49.222 E133.37836
G1 X120.553 Y54.910 E133.67912
G1 X120.893 Y55.020 E133.69606
G1 X123.744 Y49.333 E133.99682
G1 X124.085 Y49.444 E134.01376
G1 X121.234 Y55.131 E134.31452
G1 X121.575 Y55.242 E134.33146
G1 X124.425 Y49.554 E134.63222
G1 X124.766 Y49.665 E134.64916
G1 X121.915 Y55.353 E134.94992
G1 X122.256 Y55.463 E134.96685
G1 X125.107 Y49.776 E135.26762
G1 X125.441 Y49.899 E135.28447
G1 X122.597 Y55.574 E135.58458
G1 X122.887 Y55.784 E135.60155
G1 X125.744 Y50.085 E135.90292
G1 X126.034 Y50.296 E135.91989
